X:20
T:Polska ur Petter Dufvas notbok (Ma6-20)
R:Polska
O:Verkelbäck, Småland
B:Petter Dufvas notbok
S:Petter Dufva
N:Smus Ma6 bild 22
M:3/4
L:1/8
K:Gm
dd d2 e2|dd/e/ d2 c2|BA Bc dB|A/B/c/A/ B2 B,2:|
|:BA/B/ cB AG|^FG AF D2|BA/B/ cB AG|AG/^F/ G2 G,2:|

